icons/svg/16x16/trash/outline.svg

<svg xmlns="http://www.w3.org/2000/svg" width="16" height="16" viewBox="0 0 16 16">
  <path fill-rule="evenodd" d="M14,3 C14,3.553 13.552,4 13,4 L3,4 C2.448,4 2,3.553 2,3 C2,2.447 2.448,2 3,2 L5,2 C5,1.447 5.448,1 6,1 L10,1 C10.552,1 11,1.447 11,2 L13,2 C13.552,2 14,2.447 14,3 L14,3 Z M5,7 L11,7 L11,12.5 C11,12.775 10.776,13 10.5,13 L5.5,13 C5.224,13 5,12.775 5,12.5 L5,7 Z M3,12.5 C3,13.881 4.119,15 5.5,15 L10.5,15 C11.881,15 13,13.881 13,12.5 L13,5 L3,5 L3,12.5 Z"/>
</svg>

<svg width="16" height="16" fill="none" xmlns="http://www.w3.org/2000/svg">
  <path fill-rule="evenodd" clip-rule="evenodd" d="M14 3a1 1 0 01-1 1H3a1 1 0 110-2h2a1 1 0 011-1h4a1 1 0 011 1h2a1 1 0 011 1zM5 7h6v5.5a.5.5 0 01-.5.5h-5a.5.5 0 01-.5-.5V7zm-2 5.5A2.5 2.5 0 005.5 15h5a2.5 2.5 0 002.5-2.5V5H3v7.5z" fill="#000"/>
</svg>
